!!!SOCIAL_FUNCTION: hand game and ghost dance songs
!!!PDT:	1929
!!!LING_GROUP: Caddoan
!!!LANG: Non-Tone
!!!REG: Oklahoma
!!!COM: Anon.
!!!OTL: Hand Game Guessing Song (e)
!!!ODT: <1920//
!!!MPN: Horse Chief [Spotted Horse Chief]
!!!MLC: Pawnee, Oklahoma, United States of America
!! Song was recorded either 1919 or 1920.
!!!AGN: monody
!!!AMT: irregular
!!!RWG: Transcribed pitches, durations, and meters are only approximate.
!! Drum not recorded
**kern
*ICvox
*Imale
*clefF4
*k[b-]
*MM112
*[A,B,A,C]
*>A
*M2/4
=!|:1
4A
12B-
12A
12G
=2
8.G
16G
8G
8r
=3
4A
12B-
12A
12G
=4
8.G
16G
8G
8r
=5
8.D
16D
4G
*M3/4
=6
8.G
16F
8.F
16F
8F
8r
*M2/4
=7
8.D
16D
8.F
16D
=8
8.D
16D
8D
8r
=9
8.D
16D
8.F
16D
*>B
*M3/4
=10
8.D
16D
8D
8r
8.D
16D
*>C
*M3/4
=11
8.D
16D
8D
8r
4r
==
*-
!!!HAO: [no description]
!!!HTX: [no free translation]
!!!CNT: Pawnee
!!!TXO: Pawnee
!!!OCY: United States
!!!OCL: Frances Densmore
!!!YOR: Frances Densmore, "Pawnee Music"
!!!YOR: Bulletin 93, page 74, No. 44
!!!PPR: Smithsonian Institution, Bureau of American Ethnology
!!!PPR: Government Printing Office
!!!PDT: 1926
!!!PPP: Washington, DC, United States of America
!!!YEC: Electronic Copyright 2000 David Huron
!!!YER: September 2000
!!!YEN: United States of America
!!!ENC: David Huron
!!!RDT: September 3, 2000
!!!EEV: Release 1.0
!!!AIN: vox
